X:15
T:GRLBHND2- The girl I left behind me
S:Hime's Pocket Companion for the German Flute or Violin, c 1810
Q:1/4=120
L:1/8
M:2/4
K:G
g/f/|ec BA|BG EF|G3/2A/ G/A/B/c/|d3/2B/ gf/g/|\
ec BA|BE E/F/G/A/|B/A/G/F/ EF|G2G::e|ef gf/e/|fB Bd|\
ef g/f/e/d/|e3/2f/ gf/g/|ec BA|BE E/F/G/A/|\
B/A/G/F/ EF|G2G||B/c/|eB gf/g/|dB ba/g/|f/e/d/c/ B/A/G/F/|\
E/G/F/A/ G|]

